T: Seven Hops
M: 3/4
L: 1/8
K: Gmaj
D3 F Ad | f3 d AF | G3 B dg | b4 _b2 | a3 g ec |1 A3 c eg | f3 d AF | D3 :|2 A3 g ec | f3 e dc | d3 ||f3 A fA | g2 f2 e2 | d2 G3 B | A4 a2 | a3 g ec |1 A3 c eg | f3 d AF | D3 :|2 A3 g ec | f3 e dc | d3 ||B3 _B =B2 | B2 (3ABA G2 | F3 D Fd | c3 D FA | d3 D dD | (3cdc B2 A2 |1 G3 D Ge | d3 :|2 G3 F GA | G3 ||
